X:85
T:Poud Cottage. RHu.085
S:R.Hughes MS,1823,Whitchurch,Shrops.
A:Whitchurch, Shropshire
Z:Neil Brookes 2006
M:2/4
L:1/8
Q:1/4=140
R:Country Dance
K:D
Addf|Addf|gfed|ceA2|Addf|Addf|gedc|d2d2::!
eccA|fddA|geec|cAAG|FAd^c|BG ed|cABc|d2d2:|

